docs/.gitbook/assets/icon-bird-16@dark.svg

<svg width="32" height="32" viewBox="0 0 16 16" fill="none" xmlns="http://www.w3.org/2000/svg">
<rect x="0" y="0" width="16" height="16" fill="#181c1f"/>
<path d="M7.25 5C7.25 5.41421 6.91421 5.75 6.5 5.75C6.08579 5.75 5.75 5.41421 5.75 5C5.75 4.58579 6.08579 4.25 6.5 4.25C6.91421 4.25 7.25 4.58579 7.25 5Z" fill="#fff"/>
<path fill-rule="evenodd" clip-rule="evenodd" d="M3.13943 9.29199C3.26503 9.38899 3.37587 9.51134 3.42197 9.6632C3.47664 9.84331 3.54369 10.0182 3.62214 10.1867C4.45669 12.4133 6.6046 14 9.125 14C12.3697 14 15 11.3697 15 8.125V7.25C15 6.83579 14.6642 6.5 14.25 6.5H11.75C11.4739 6.5 11.25 6.27614 11.25 6V5C11.25 2.79086 9.45914 1 7.25 1C5.34861 1 3.75707 2.32666 3.35055 4.10483C3.31477 4.26134 3.2108 4.39243 3.09025 4.49847C3.07411 4.51267 3.05831 4.52748 3.04289 4.54289L1.29289 6.29289C1.09593 6.48985 0.990048 6.76004 1.00074 7.03838C1.01143 7.31672 1.13772 7.57798 1.34921 7.75926L3.09921 9.25926C3.11241 9.27057 3.12582 9.28148 3.13943 9.29199ZM7.25 2.5C5.86929 2.5 4.75 3.61929 4.75 5V8.49442C4.75002 8.4981 4.75003 8.50177 4.75001 8.50545C4.75082 8.88912 4.83755 9.25055 4.99129 9.57332C5.00115 9.59402 5.01006 9.61517 5.01798 9.63668C5.63379 11.3091 7.24127 12.5 9.125 12.5C11.5412 12.5 13.5 10.5412 13.5 8.125C13.5 8.05596 13.444 8 13.375 8H10.5C10.0858 8 9.75 7.66421 9.75 7.25V5C9.75 3.61929 8.63071 2.5 7.25 2.5Z" fill="#fff"/>
</svg>

<svg xmlns="http://www.w3.org/2000/svg" width="32" height="32" fill="none" viewBox="0 0 16 16"><path fill="#181c1f" d="M0 0h16v16H0z"/><path fill="#fff" d="M7.25 5a.75.75 0 1 1-1.5 0 .75.75 0 0 1 1.5 0"/><path fill="#fff" fill-rule="evenodd" d="M3.14 9.292a.77.77 0 0 1 .282.371q.083.27.2.524A5.877 5.877 0 0 0 15 8.125V7.25a.75.75 0 0 0-.75-.75h-2.5a.5.5 0 0 1-.5-.5V5a4 4 0 0 0-7.9-.895.77.77 0 0 1-.26.393l-.047.045-1.75 1.75a1 1 0 0 0 .056 1.466l1.75 1.5zM7.25 2.5A2.5 2.5 0 0 0 4.75 5v3.505c0 .384.088.746.241 1.068l.027.064A4.377 4.377 0 0 0 13.5 8.125.125.125 0 0 0 13.375 8H10.5a.75.75 0 0 1-.75-.75V5a2.5 2.5 0 0 0-2.5-2.5" clip-rule="evenodd"/></svg>
